X: 4094
T: The WEE PUG
R: Strathspey.
%R: strathspey
B: James Kerr "Merry Melodies" v.4 p.12 #94
Z: 2016 John Chambers <jc:trillian.mit.edu>
M: C
L: 1/8
K: G
uD |\
G>AB>c d2B>c | d<B g>e d3D |\
[1 G>AB>c d<B g>f | e<d B>G A3 :|\
[2 E>FG>A B<d e<g | d<B A>B G3 |:\
d |\
g>ag>f e>d B<d |
g>ag>f e3d |\
g>ag>f e>d B<g | B<A A>B A3d |\
g>ag>f e>d B<d | g>ag>f e3f |\
(3gab (3agf (3gfe (3dcB |[1 d<B A>B G3 :|\
[2 (3ded (3cBA G3 |]

%%sep 1 1 500
%%sep 1 1 500

